!!!COM: Music21
!!!OTL: Jota de Arbo
!!!OMV: pezas_jotas_jota-de-arbo_jota-de-arbo-partitura.musicxml
**kern
*part1
*staff1
*I"Bagpipes
*I'Bag
*clefG^2
*k[]
*M3/4
=1
!LO:TX:a:t=Prestissimo
*MM200
!LO:TX:a:t=[quarter]=200
4r
8eeL
8ggJ
8eeL
8ggJ
=||
8bbL
8ggJ
8eeL
8ggJ
8eeL
8ggJ
=
8bbL
8ggJ
8eeL
8ggJ
8eeL
8ggJ
=
8bbL
8ggJ
8eeL
8ggJ
8eeL
8ggJ
=
4ff
8ddL
8ffJ
8ddL
8ffJ
=
8aaL
8ffJ
8ddL
8ffJ
8ddL
8ffJ
=
8aaL
8ffJ
8ddL
8ffJ
8ddL
8ffJ
!!linebreak:original
=
8aaL
8ffJ
8bbL
8aaJ
8ggL
8ffJ
=
4ee
8eeL
8ggJ
8eeL
8ggJ
=||
8bbL
8ggJ
8eeL
8ggJ
8eeL
8ggJ
=
8bbL
8ggJ
8eeL
8ggJ
8eeL
8ggJ
=
8bbL
8ggJ
8eeL
8ggJ
8eeL
8ggJ
=
4ff
8ddL
8ffJ
8ddL
8ffJ
=
8aaL
8ffJ
8ddL
8ffJ
8ddL
8ffJ
!!linebreak:original
=
8aaL
8ffJ
8ddL
8ffJ
8ddL
8ffJ
!!linebreak:original
=
8aaL
8ffJ
8bbL
8aaJ
8ggL
8ffJ
=
[2.ee
=
4ee]
4gg
4ff
=||
2ee
4ff
=
2gg
4bb
=
4aa
4gg
[4ff
=
4ff]
4ff
4ee
=
2dd
4ee
=
2ff
4aa
=
4gg
4ff
[4ee
=
4ee]
4gg
4ff
=
2ee
4ff
!!linebreak:original
=
2gg
4bb
=
4aa
4gg
[4ff
=
4ff]
4ff
4ee
=
2dd
4ee
=
2ff
4aa
=
4gg
4ff
[4ee
=
4ee]
4gg
4ff
=
2ee
4ff
=
2gg
4bb
=
4aa
4gg
[4ff
=
4ff]
4ff
4ee
=
2dd
4ee
=
2ff
4aa
!!linebreak:original
=
4gg
4ff
[4ee
!!pagebreak:original
=
4ee]
8eeL
8ggJ
8eeL
8ggJ
==
*-
!!!system-decoration: s1,s2
